X:1
T:Lord Randall
M:3/4
L:1/4
K:C
 G| B B B| B d3/2 B/2| A G A| B2G/2-A/2| B B B| B d3/2 B/2| A B A|\
 G2 G| B B B| B d B/2B/2| A G A| B2 G/2A/2| B B B| B d3/2 B/2| A B A|\
 G2||
